X: 1
T: Toss The Feathers
R: reel
M: 4/4
L: 1/8
K: Dmix
|: ~D2DA EDAD| ~D2AD EAGE| D2AD EDEG |1~A2AB cAGE :|2 ~A2GE EDD2|
| Add^c dA (3Bcd  | ed^cd eddg | eaag ed^cd | ed^ce dA (3B^cd |
| eaag efge  |d=fed =cAGE |D2 (3=FED (3EFG AB | cded cAGE || 




